X:15
T:La Quebrada de Humahuaca
R:waynu
Z:id:hn-waynu-15
O:Argentina
M:2/4
L:1/8
Q:1/4=90
K:Em
e/ee/ e/fg/ | g/fe/ ed | B/BB/ AG | E3/E3/E :|
d/dd/ e/BA/ | G/Ed/ de | B/BB/ AG |1 E3/E3/E :|
[2 |: E>d de | B/BB/ AG :| E3/E3/E ||

